X: 144
T: Old Jimmy Sutton
B: canberra pickers and fiddlers
B: old time tunes update
B: tunes
M:C|
L:1/8
R: Reel
Q: 1/4=100
K:D
V:1 
d2 f-ed2f-e |d2[df]f ecec|ddf-ed2f-e|ddfd Acec|
d2 f-ed2f-e|ddfd Acec|d2 f-e dd[df]d|[d2g2][d2f2]  ecec:|
f-a-aa- a2(fg|a2) af ec e2|((3e/f/g/a-a)a- a2ef| Jg2Jf2 ece[ce]|
ea-ae a2((3efg|a2)e[Ae]  c2e2|[A4a4] Jc'4|a4 f-g2fe||
% abcbook-tune_id 67a7d9ec9833d89a9186d0b9
% abcbook-tune_composer_id 
% abcbook-link-0 https://www.youtube.com/watch?v=8pQUvuJOJUw
% abcbook-link-title-0 Old Jimmy Sutton--Brad Leftwich, 1985
% abcbook-boost 0
% abcbook-difficulty 0
% abcbook-tags old time tunes
% abcbook-tablature 
% abcbook-transpose 
% abcbook-tuning ADAE
% abcbook-lastupdated 1739214395322
% abcbook-src-url 
% abcbook-soundfonts 
% abcbook-repeats 1


